X: 1
T: Far Frae Hame
C: Trad.
S: O’Neill’s Dance Music of Ireland
B: "The Strathspey Anniversary Collection" 2011 ed. Anselm Lingnau
N: Ten new country dances in the Scottish tradition devised by readers of the Strathspey mailing list
R: reel
Z: 2011 John Chambers <jc:trillian.mit.edu>
M: C|
L: 1/8
K: G
BA |\
"G"GEDE G3A | B2BA Bcd2 | "G"GEDE G3B | "Am"AGAB "D7"AGEF |
"G"GEDE G2GA | (3BAG BA Bcd2 | "C"edef gedc | "G"BG"D7"AF "G"G2 :|
|: (3def |\
"Em"g2ge "Bm"fdd2 | "Em"edef "Bm"edBd | "Em"gedB GBB2 | "Am"(3ABc BG AGE2 |
"G"GEDE G3A | (3BAG BA "G7"Bcd2 | "C"edef gedc | "G"BG"D7"AF "G"G2 :|
